X:1
T:Title
%%score { ( 1 3 5 ) | ( 2 4 ) }
L:1/8
M:4/4
K:Ab
V:1 treble nm="Grand Piano"
V:3 treble 
V:5 treble 
V:2 bass 
V:4 bass 
V:1
 z4 z2[Q:1/4=94] [Cc]2 | [CB]2 [CA]2 [CG]2 [CF]2 | [DA]3 [DG] [DG]2 [Dd]2 | c2 B2 =A2 B2 | %4
 c2- [Fc-]2 [Ec]2 [Cc]2 | [CB]2 [CA]2 [CE]2 [CF]2 | [DA]3 [DG] [DG]2 [EB]2 | =A2 B2 c2 B2 | E6 z2 | %9
 [Gd]2 [_Gc]2 [=GB]2 [Gf]2 | e4 z4 | z2 d2 c2 z2 | A6 z2 | [FA]2 [FA]2 [=EG]2 [FA]2 | %14
 [Af]3 [Ae] [Ae]2 [Ec]2 | [Dd]2 [DF]2 [Dc]3 [DB] |[M:3/4] [CA]6 |] %17
V:2
 z4 z2 [A,,E,]2 | [A,,E,]2 [A,,E,]2 [A,,E,]2 [A,,E,]2 | [B,,E,]3 [B,,E,] [B,,E,]2 [B,,G,]2 | %3
 [E,G,D]2 [E,G,D]2 [E,_G,D]2 [E,=G,D]2 | [A,,A,]6 [A,,E,]2 | [A,,E,]2 [A,,E,]2 [A,,E,]2 [A,,E,]2 | %6
 [B,,E,]3 [B,,E,] [B,,E,]2 [B,,G,]2 | z4 A,4 | [G,B,]2 z2 z4 | [E,B,]2 [E,=A,]2 [E,B,]2 [E,D]2 | %10
 [A,A]3 [A,A] [A,EA]2[K:bass] [A,CE]2 | z4 B,2 z2 | [F,F]2 z2 z4 | %13
 [D,D]2 [D,A,]2 [D,B,]2 [=D,_C]2 | [E,C]3 [E,C] [E,C]2 [F,=A,]2 | %15
 [B,,B,]2 [B,,A,]2 [E,G,]3 [E,G,] |[M:3/4] [A,,A,]6 |] %17
V:3
 x8 | x8 | x8 | x8 | C2 z2 z4 | x8 | x8 | E4 =D4 | z2 C2 D2 E2 | x8 | z2 z d c2 c2 | %11
 c2 z B, =E2- [EG]2 | z2 E2 F2 [_GA]2 | x8 | x8 | x8 |[M:3/4] x6 |] %17
V:4
 x8 | x8 | x8 | x8 | x8 | x8 | x8 | [B,,F,]2 [B,,G,]2 B,,2 B,,2 | E,2- [E,-A,]2 [E,B,]2 [E,A,C]2 | %9
 x8 | C2 z2 z4[K:bass] | [G,B,=E]4 C,2- [C,C]2 | C2- [_G,C]2 [F,D]2 [E,C]2 | x8 | x8 | x8 | %16
[M:3/4] x6 |] %17
V:5
 x8 | x8 | x8 | x8 | x8 | x8 | x8 | x8 | x8 | x8 | z2 F2 z4 | x8 | x8 | x8 | x8 | x8 |[M:3/4] x6 |] %17

